X: 568
P: Longways for as many as will
M: C|
L: 1/8
K: C
c2 c2 d2 e2 | f2 g2 e2 (dc) | f2 f2 d2 g2 | e2 (dc) g4 |\
e2 ee a2 a2 | d2 d2 g2 g2 | c2 (BA) d2 (cB) | (cB) (AG) G4 |]
d2 d2 B2 (AG) | f2 f2 "1."[e4d4] | (fe) (dc) (cd) e2 | (dc) (BA) A4 |\
f2 f2 (fg) a2 | (gf) (ed) ^c4 | a2 f2 (fg) a2 | (gf) (ed) d3 e |
f2 e2 d2 e2 | (dc) (BA) B3 c | A2 B2 c2 d2 | e2 d>c c3 |]

